X:1
T:Title
%%score { ( 1 4 ) | ( 2 3 ) }
L:1/8
M:6/4
K:A
V:1 treble nm="Grand Piano"
V:4 treble 
V:2 bass 
V:3 bass 
V:1
 z6 z4[Q:1/4=144] [CA]2 | [Ec]2 B2 [A,CA]2 .[B,DG]4 [B,DG]2 | [A,CA]6- [A,CA]4 [A,CE]2 | %3
 [A,DF]4 [A,DF]2 [FA]2 G2 F2 |[M:5/4] [CE]2- [CE]2- [CE]6 |[M:1/4] [CE]2 | %6
[M:6/4] [CA]4 [CA]2 [EA]4 [EB]2 | [Ec]6- [Ec]4 [CEA]2 | [EAc]4 [EAc]2 [EAc]4 [EBd]2 | %9
 [ce]4- [Ec-e-]2 [Ece]4 c2 | [GB]4 [GB]2 [GB]4 [Ac]2 | .B6 z6 | [Ec]2 d2 c2 B2 c2 B2 | %13
[M:5/4] [A,CA]2- [A,CA]2- [A,CA]6 |[M:1/4] z2 |[M:6/4] e12 | e12 | c4 c2 .[^DAc]4 [DA]2 | [GB]12 | %19
 e2- [Ece-]2 [ce-]2 [Ae]4 c2 | e2- [Ece-]2 [ce-]2 [Ae]4 A2 | c2 d2 c2 B2 c2 B2 | %22
[M:5/4] [CA]2- [CA]2- [CA]6 |] %23
V:2
 z6 z4 [A,,A,]2 | z2 D2 A,,2 z2 F2 E,2 | A,,6- A,,4 A,,2 | D,4 D,2 z2 E2 [D,A,D]2 | %4
[M:5/4] [A,,A,]2- [A,,A,]2- [A,,A,]6 |[M:1/4] [A,,A,]2 |[M:6/4] [A,,E,]4 [A,,E,]2 [C,A,]4 [E,G,]2 | %7
 A,4 A,2 A,4 A,2 | A,4 A,2 A,4 A,2 | A,4 A,2 A,4 [A,EA]2 | [E,E]4 [E,E]2 [E,E]4 [E,E]2 | %11
 [E,E]6- [E,E]4 [E,G,]2 | z2[K:treble] F2 [A,E]2[K:bass] D2 E2 [E,G,D]2 |[M:5/4] A,,2- A,,2- A,,6 | %14
[M:1/4][K:treble] c2 |[M:6/4][K:bass] [A,,A,]2 [C,A,]2 [E,A,E]2 .[A,C]6 | %16
 [A,,A,]2 [C,A,]2 [E,A,E]2[K:treble] [A,C]4 [A,CE]2 | [A,EA]4 [A,EA]2 z2 B2[K:bass] F,2 | %18
 E,4 E,2 .E,6 | [A,,A,]2 [C,A,]2 [E,A,E]2 .[A,C]6 | %20
 [A,,A,]2 [C,A,]2 [E,A,E]2[K:treble] [A,C]4 [A,CE]2 | E2 F2 [A,E]2[K:bass] D2 E2 [E,G,D]2 | %22
[M:5/4] [A,,A,]2- [A,,A,]2- [A,,A,]6 |] %23
V:3
 x12 | .[A,,A,]6 .E,6 | x12 | z6 .D,6 |[M:5/4] x10 |[M:1/4] x2 |[M:6/4] x12 | x12 | x12 | x12 | %10
 x12 | x12 | .A,6[K:treble][K:bass] .[E,G,]6 |[M:5/4] x10 |[M:1/4][K:treble] x2 | %15
[M:6/4][K:bass] x12 | x6[K:treble] x6 | z6 .F,6[K:bass] | x12 | x12 | x6[K:treble] x6 | %21
 .A,6[K:bass] .[E,G,]6 |[M:5/4] x10 |] %23
V:4
 x12 | x12 | x12 | z6 .A,6 |[M:5/4] x10 |[M:1/4] x2 |[M:6/4] x12 | x12 | x12 | .E6 z6 | x12 | %11
 d4- [Ad-]2 [Gd]3- [G-d]/G/ [Fd]2 | x12 |[M:5/4] x10 |[M:1/4] x2 |[M:6/4] [Ec]2 [Ec]2 c2 A4 c2 | %16
 [Ec]2 [Ec]2 c2 A4 A2 | x12 | E4 E2 E4 c2 | .[Ec]6 z6 | .[Ec]6 z6 | x12 |[M:5/4] x10 |] %23

